<?xml version="1.0" encoding="UTF-8"?>
<map version="1.10" tiledversion="2025.11.21" orientation="orthogonal" renderorder="right-down" width="30" height="30" tilewidth="32" tileheight="32" infinite="0" nextlayerid="16" nextobjectid="124">
 <properties>
  <property name="stage_id" value="stage.village"/>
  <property name="display_name" value="Willow Village"/>
  <property name="display_name_key" value="stage.village.name"/>
  <property name="mode" value="topdown"/>
  <property name="camera_width" type="float" value="800"/>
  <property name="camera_height" type="float" value="450"/>
  <property name="background" value="#0e1c17"/>
  <property name="world_pages" value="[{&quot;id&quot;:&quot;dusk&quot;,&quot;condition&quot;:{&quot;type&quot;:&quot;time_between&quot;,&quot;start&quot;:&quot;18:00&quot;,&quot;finish&quot;:&quot;06:00&quot;},&quot;tint&quot;:[0.035,0.055,0.16,0.42]}]"/>
 </properties>
 <tileset firstgid="1" name="tileset_area1" tilewidth="32" tileheight="32" tilecount="486" columns="27">
  <properties>
   <property name="asset" value="image.world_tileset"/>
  </properties>
  <image source="../../assets/runtime/images/tilesets/tileset_area1.png" trans="ff00ff" width="864" height="576"/>
 </tileset>
 <layer id="8" name="Background_Near" width="30" height="30" locked="1" offsetx="-64" offsety="0">
  <data encoding="csv">
0,0,0,0,0,0,0,0,0,0,0,0,0,0,0,0,0,0,0,0,0,0,0,0,0,0,0,0,0,0,
0,0,0,0,0,0,0,0,0,0,0,0,0,0,0,0,0,0,0,0,0,0,0,0,0,0,0,0,0,0,
0,0,0,0,0,0,0,0,0,0,0,0,0,0,0,0,0,0,0,0,0,0,0,0,0,0,0,0,0,0,
0,0,0,0,0,0,0,0,0,0,0,0,0,0,0,0,0,0,0,0,0,0,0,0,0,0,0,0,0,0,
0,0,0,0,0,0,0,0,0,0,0,0,0,0,0,0,0,0,0,0,0,0,0,0,0,0,0,0,0,0,
0,0,0,0,0,0,0,0,0,0,0,0,0,0,0,0,0,0,0,0,0,0,0,0,0,0,0,0,0,0,
0,0,0,0,0,0,0,0,0,0,0,0,0,0,0,0,0,0,0,0,0,0,0,0,0,0,0,0,0,0,
0,0,0,0,0,0,0,0,0,0,0,0,0,0,0,0,0,0,0,0,0,0,0,0,0,0,0,0,0,0,
0,0,0,0,0,0,0,0,0,0,0,0,0,0,0,0,0,0,0,0,0,0,0,0,0,0,0,0,0,0,
0,0,0,0,0,0,0,0,0,0,0,0,0,0,0,0,0,0,0,0,0,0,0,0,0,0,0,0,0,0,
0,0,0,0,0,0,0,0,0,0,0,0,0,0,0,0,0,0,0,0,0,0,0,0,0,0,0,0,0,0,
0,0,0,0,0,0,0,0,0,0,0,0,0,0,0,0,0,0,0,0,0,0,0,0,0,0,0,0,0,0,
0,0,0,0,0,0,0,0,0,0,0,0,0,0,0,0,0,0,0,0,0,0,0,0,0,0,0,0,0,0,
0,0,0,0,0,0,0,0,0,0,0,0,0,0,0,0,0,0,0,0,0,0,0,0,0,0,0,0,0,0,
0,0,0,0,0,0,0,0,0,0,0,0,0,0,0,0,0,0,0,0,0,0,0,0,0,0,0,0,0,0,
0,0,0,0,0,0,0,0,0,0,0,0,0,0,0,0,0,0,0,0,0,0,0,0,0,0,0,0,0,0,
0,0,0,0,0,0,0,0,0,0,0,0,0,0,0,0,0,0,0,0,0,0,0,0,0,0,0,0,0,0,
0,0,0,0,0,0,0,0,0,0,0,0,0,0,0,0,0,0,0,0,0,0,0,0,0,0,0,0,0,0,
0,0,0,0,0,0,0,0,0,0,0,0,0,0,0,0,0,0,0,0,0,0,0,0,0,0,0,0,0,0,
0,0,0,0,0,0,0,0,0,0,0,0,0,0,0,0,0,0,0,0,0,0,0,0,0,0,0,0,0,0,
0,0,0,0,0,0,0,0,0,0,0,0,0,0,0,0,0,0,0,0,0,0,0,0,0,0,0,0,0,0,
0,0,0,0,0,0,0,0,0,0,0,0,0,0,0,0,0,0,0,0,0,0,0,0,0,0,0,0,0,0,
0,0,0,0,0,0,0,0,0,0,0,0,0,0,0,0,0,0,0,0,0,0,0,0,0,0,0,0,0,0,
0,0,0,0,0,0,0,0,0,0,0,0,0,0,0,0,0,0,0,0,0,0,0,0,0,0,0,0,0,0,
0,0,0,0,73,73,73,73,73,73,73,73,110,110,0,0,0,0,0,0,0,0,0,0,0,0,0,0,0,0,
0,0,0,0,73,73,73,73,73,73,73,73,110,110,0,0,0,0,0,0,0,0,0,0,0,0,0,0,0,0,
0,0,0,0,73,73,73,73,73,73,73,73,110,110,0,0,0,0,0,0,0,0,0,0,0,0,0,0,0,0,
0,0,0,0,73,73,73,73,73,73,73,73,110,110,0,0,0,0,0,0,0,0,0,0,0,0,0,0,0,0,
0,0,0,0,73,73,73,73,73,73,73,73,110,110,0,0,0,0,0,0,0,0,0,0,0,0,0,0,0,0,
0,0,0,0,0,0,0,0,0,0,0,0,0,0,0,0,0,0,0,0,0,0,0,0,0,0,0,0,0,0
</data>
 </layer>
 <layer id="1" name="Ground" width="30" height="30" locked="1">
  <data encoding="csv">
29,29,29,110,110,29,29,29,29,29,29,29,29,29,29,29,29,29,29,29,29,29,29,29,29,29,29,29,29,29,
29,29,29,110,110,29,29,29,29,29,29,29,29,29,29,29,29,29,29,29,29,29,29,29,29,29,29,29,29,29,
29,29,29,110,110,29,29,29,29,29,29,29,29,29,29,29,29,29,29,29,29,29,29,29,29,29,29,29,29,29,
29,29,29,110,110,110,110,110,110,110,110,110,110,110,110,110,110,110,110,110,110,110,110,110,110,110,110,110,110,110,
29,29,29,110,110,110,110,110,110,110,110,110,110,110,110,110,110,110,110,110,110,110,110,110,110,110,110,110,110,110,
29,29,29,110,110,110,110,110,110,110,110,110,110,110,110,110,110,110,110,110,110,110,110,110,110,110,110,110,110,110,
29,29,29,110,110,29,29,29,29,29,29,29,110,110,110,29,29,29,29,29,29,29,29,29,29,29,29,29,29,29,
29,29,29,110,110,29,29,29,29,29,29,29,110,110,110,29,29,29,29,29,29,29,29,29,29,29,29,29,29,29,
29,29,29,110,110,29,29,29,29,29,29,29,110,110,110,29,29,29,29,29,29,29,29,29,29,29,29,29,29,29,
29,29,29,110,110,29,29,29,29,29,29,29,110,110,110,29,29,29,29,29,29,29,29,29,29,29,29,29,29,29,
29,29,29,110,110,29,29,29,29,29,29,29,110,110,110,29,29,29,29,29,29,29,29,29,29,29,29,29,29,29,
29,29,29,110,110,29,29,29,29,29,29,29,110,110,110,29,29,29,29,29,29,29,29,29,29,29,29,29,29,29,
29,29,29,110,110,29,29,29,29,29,29,29,110,110,110,29,29,29,29,29,29,29,29,29,29,29,29,29,29,29,
29,29,29,110,110,29,29,29,29,29,29,29,110,110,110,29,29,29,29,29,29,29,29,29,29,29,29,29,29,29,
29,29,29,110,110,29,29,29,29,29,29,29,110,110,110,29,29,29,29,29,29,29,29,29,29,29,29,29,29,29,
29,29,29,110,110,110,110,110,110,110,110,110,110,110,110,29,29,29,29,29,29,29,29,29,29,29,29,29,29,29,
29,29,29,110,110,110,110,110,110,110,110,110,110,110,110,110,110,110,110,110,110,110,110,110,110,110,110,110,110,110,
29,29,29,110,110,110,110,110,110,110,110,110,110,110,110,110,110,110,110,110,110,110,110,110,110,110,110,110,110,110,
29,29,29,110,110,110,110,110,110,110,110,110,110,110,110,110,110,110,110,110,110,110,110,110,110,110,29,29,29,29,
29,29,29,29,29,29,29,29,29,29,29,29,110,110,110,29,29,29,29,29,29,29,29,29,110,110,29,29,29,29,
29,29,29,29,29,29,29,29,29,29,29,29,110,110,110,29,29,29,29,29,29,29,29,29,110,110,29,29,29,29,
29,29,29,29,29,29,29,29,29,29,29,29,110,110,110,29,29,29,29,29,29,29,29,29,110,110,29,29,29,29,
29,29,29,29,29,29,29,29,29,29,29,29,110,110,110,29,29,29,29,29,29,29,29,29,110,110,29,29,29,29,
29,29,29,29,29,29,29,29,29,29,29,29,110,110,110,29,29,29,29,29,29,29,29,29,110,110,29,29,29,29,
29,29,29,29,29,29,29,29,29,29,29,29,110,110,110,110,110,110,110,110,110,110,110,110,110,110,29,29,29,29,
29,29,29,29,29,0,0,0,0,110,29,29,110,110,110,110,110,110,110,110,110,110,110,110,110,110,29,29,29,29,
29,29,29,29,29,0,0,0,0,110,29,29,110,110,110,110,110,110,110,110,110,110,110,110,110,110,29,29,29,29,
29,29,29,29,29,0,0,0,0,110,29,29,29,29,29,29,29,29,29,29,29,29,29,29,110,110,29,29,29,29,
29,29,29,29,29,29,29,29,29,29,29,29,29,29,29,29,29,29,29,29,29,29,29,29,110,110,29,29,29,29,
29,29,29,29,29,29,29,29,29,29,29,29,29,29,29,29,29,29,29,29,29,29,29,29,110,110,29,29,29,29
</data>
 </layer>
 <layer id="2" name="Decos" width="30" height="30">
  <data encoding="csv">
236,236,264,290,290,290,109,110,110,110,111,290,290,290,290,263,263,263,263,263,263,263,263,263,263,263,263,263,263,263,
263,263,264,356,358,382,136,137,137,137,138,0,0,0,0,290,290,290,290,290,290,290,290,290,290,290,290,290,290,290,
263,263,264,0,0,0,0,0,0,0,0,0,0,0,0,0,0,0,0,0,0,0,0,0,0,0,0,0,0,0,
263,263,264,0,0,0,0,0,0,0,0,0,0,0,0,0,0,0,0,0,0,0,0,0,0,0,0,0,0,0,
263,263,264,0,0,0,0,0,0,0,0,0,0,0,0,0,0,0,0,0,0,0,0,0,0,0,0,0,0,0,
263,263,264,0,0,0,0,0,0,0,0,0,0,0,0,0,0,0,0,0,0,0,0,0,0,0,0,0,0,0,
263,263,264,0,0,0,9,10,10,10,11,0,0,0,0,0,0,0,0,0,0,0,0,0,0,0,0,0,0,0,
263,263,264,0,0,0,63,64,64,64,65,0,0,0,0,235,236,236,236,236,236,236,236,236,236,236,236,236,236,236,
263,263,264,0,0,0,181,181,181,181,181,0,0,0,0,262,263,263,263,263,263,263,263,263,263,263,263,263,263,263,
263,263,264,0,0,0,208,208,413,414,208,0,0,0,0,262,263,263,263,263,263,263,263,263,263,263,263,263,263,263,
263,263,264,0,0,0,0,0,0,0,0,0,0,0,0,262,263,263,263,263,263,263,263,263,263,263,263,263,263,263,
263,263,264,0,0,0,0,0,0,0,0,0,0,0,0,262,263,263,263,263,263,263,263,263,263,263,263,263,263,263,
263,263,264,0,0,0,0,233,0,233,0,0,0,0,0,262,263,263,263,263,263,263,263,263,263,263,263,263,263,263,
263,263,264,0,0,0,0,287,0,287,0,0,0,0,0,262,263,263,263,263,263,263,263,263,263,263,263,263,263,263,
263,263,264,0,0,0,0,0,0,0,0,0,0,0,0,289,290,290,290,290,290,290,290,290,290,290,290,290,290,290,
263,263,264,0,0,0,0,0,0,0,0,0,0,0,0,0,0,0,0,0,0,0,0,0,0,0,0,0,0,0,
263,263,264,0,0,0,0,0,0,0,0,0,0,0,0,0,0,0,0,0,0,0,0,0,0,0,0,0,0,0,
263,263,264,0,0,0,0,0,0,0,0,0,0,0,0,0,0,0,0,0,0,0,0,0,0,0,0,0,0,0,
263,263,264,0,0,0,0,0,0,0,0,0,0,0,0,0,0,0,0,0,0,0,0,0,0,0,0,0,0,0,
263,263,264,0,0,0,9,10,10,10,11,0,0,0,0,0,0,9,10,10,10,10,67,326,0,0,0,0,0,235,
263,263,264,0,0,0,63,64,64,64,65,0,0,0,0,406,406,63,64,64,64,65,89,380,326,0,0,0,0,262,
263,263,264,0,0,0,181,181,181,181,181,0,0,0,0,433,433,181,181,181,181,181,143,0,380,326,0,0,0,262,
263,263,264,0,0,0,208,208,415,416,208,0,0,0,0,433,433,208,208,415,416,208,0,0,0,380,326,0,0,262,
263,263,264,0,0,0,0,0,0,0,0,0,0,0,0,460,460,0,0,0,0,0,0,0,0,0,380,0,0,262,
263,263,264,0,222,222,222,222,222,222,222,0,0,0,0,0,0,0,0,0,0,0,0,0,0,0,0,0,0,262,
263,263,264,0,222,0,0,0,0,0,222,0,0,191,0,0,0,0,0,0,0,0,0,0,0,0,0,0,0,262,
263,263,264,0,222,0,0,0,0,0,222,0,0,0,0,0,0,0,0,0,0,0,0,0,0,0,0,0,0,262,
263,263,264,0,222,0,0,0,0,0,222,0,0,0,0,0,0,0,0,0,0,0,0,0,0,0,0,0,0,262,
263,263,236,236,236,236,236,236,236,236,236,236,236,236,236,236,236,236,236,236,236,236,236,237,0,0,235,236,236,236,
263,263,236,236,236,236,236,236,236,236,236,236,236,236,236,236,236,236,236,236,236,236,236,264,0,0,262,263,263,263
</data>
 </layer>
 <objectgroup id="15" name="Stage Objects">
  <object id="102" name="player" class="spawn" x="448" y="832">
   <properties>
    <property name="actor" value="actor.hero"/>
   </properties>
   <point/>
  </object>
  <object id="103" name="guide" class="spawn" x="384" y="784">
   <properties>
    <property name="actor" value="actor.village_guide"/>
   </properties>
   <point/>
  </object>
  <object id="104" name="default" class="spawn_point" x="448" y="832"><point/></object>
  <object id="105" name="field_return" class="spawn_point" x="864" y="270"><point/></object>
  <object id="106" name="shop_return" class="spawn_point" x="288" y="768"><point/></object>
  <object id="107" name="home_return" class="spawn_point" x="640" y="768"><point/></object>
  <object id="108" name="north_boundary" class="wall" x="0" y="0" width="960" height="32"/>
  <object id="109" name="south_boundary" class="wall" x="0" y="928" width="960" height="32"/>
  <object id="110" name="west_boundary" class="wall" x="0" y="0" width="32" height="960"/>
  <object id="111" name="east_north" class="wall" x="928" y="0" width="32" height="192"/>
  <object id="112" name="east_south" class="wall" x="928" y="384" width="32" height="576"/>
  <object id="113" name="shop_roof" class="wall" x="192" y="640" width="160" height="64"/>
  <object id="114" name="shop_left" class="wall" x="192" y="704" width="64" height="32"/>
  <object id="115" name="shop_right" class="wall" x="320" y="704" width="32" height="32"/>
  <object id="116" name="home_roof" class="wall" x="544" y="640" width="160" height="64"/>
  <object id="117" name="home_left" class="wall" x="544" y="704" width="64" height="32"/>
  <object id="118" name="home_right" class="wall" x="672" y="704" width="32" height="32"/>
  <object id="119" name="to_field" class="portal" x="928" y="192" width="32" height="192">
   <properties>
    <property name="target_stage" value="stage.world_hub"/>
    <property name="target_spawn" value="village_entry"/>
   </properties>
  </object>
  <object id="120" name="to_shop" class="portal" x="256" y="704" width="64" height="40">
   <properties>
    <property name="target_stage" value="stage.village_shop"/>
    <property name="target_spawn" value="entry"/>
   </properties>
  </object>
  <object id="121" name="to_home" class="portal" x="608" y="704" width="64" height="40">
   <properties>
    <property name="target_stage" value="stage.village_home"/>
    <property name="target_spawn" value="entry"/>
   </properties>
  </object>
  <object id="122" name="village_intro" class="trigger" x="368" y="768" width="160" height="128">
   <properties>
    <property name="once" type="bool" value="true"/>
    <property name="condition" value="{&quot;type&quot;:&quot;not&quot;,&quot;condition&quot;:{&quot;type&quot;:&quot;flag&quot;,&quot;name&quot;:&quot;story.village_arrival_seen&quot;}}"/>
    <property name="actions" value="[{&quot;type&quot;:&quot;start_cutscene&quot;,&quot;cutscene&quot;:&quot;cutscene.village_arrival&quot;}]"/>
   </properties>
  </object>
  <object id="123" name="village_square" class="region" x="320" y="704" width="256" height="192">
   <properties>
    <property name="on_enter" value="[{&quot;type&quot;:&quot;set_flag&quot;,&quot;name&quot;:&quot;world.village_square_seen&quot;}]"/>
   </properties>
  </object>
 </objectgroup>
</map>
