<?xml version="1.0" encoding="UTF-8"?>
<map version="1.10" tiledversion="1.11.2" orientation="orthogonal" renderorder="right-down" width="34" height="18" tilewidth="32" tileheight="32" infinite="0" nextlayerid="3" nextobjectid="21">
 <properties>
  <property name="stage_id" value="stage.world_hub"/>
  <property name="display_name" value="World Hub"/>
  <property name="display_name_key" value="stage.world_hub.name"/>
  <property name="mode" value="topdown"/>
  <property name="camera_width" type="float" value="800"/>
  <property name="camera_height" type="float" value="450"/>
  <property name="background" value="#101a22"/>
 </properties>
 <tileset firstgid="1" name="world_tileset" tilewidth="32" tileheight="32" tilecount="486" columns="27">
  <properties>
   <property name="asset" value="image.world_tileset"/>
  </properties>
  <image source="../../assets/runtime/images/tilesets/tileset_area1.png" trans="ff00ff" width="864" height="576"/>
 </tileset>
 <layer id="1" name="Ground" width="34" height="18">
  <data encoding="csv">
29,29,29,29,29,29,29,29,29,29,29,29,29,29,29,29,110,110,29,29,29,29,29,29,29,29,29,29,29,29,29,29,29,29,
29,29,29,29,29,29,29,29,29,29,29,29,29,29,29,29,110,110,29,29,29,29,29,29,29,29,29,29,29,29,29,29,29,29,
29,29,29,29,29,29,29,29,29,29,29,29,29,29,29,29,110,110,29,29,29,29,29,29,29,29,29,29,29,29,29,29,29,29,
29,29,29,29,29,29,29,29,29,29,29,29,29,29,29,29,110,110,29,29,29,29,29,29,29,29,29,29,29,29,29,29,29,29,
29,29,29,29,29,29,29,29,29,29,29,29,29,29,29,29,110,110,29,29,29,29,29,29,29,29,29,29,29,29,29,29,29,29,
29,29,29,29,29,29,29,29,29,29,29,29,29,29,29,29,110,110,29,29,29,29,29,29,29,29,29,29,29,29,29,29,29,29,
29,29,29,29,29,29,29,29,29,29,29,29,29,29,29,29,110,110,29,29,29,29,29,29,29,29,29,29,29,29,29,29,29,29,
110,110,110,110,110,110,110,110,110,110,110,110,110,110,110,110,110,110,110,110,110,110,110,110,110,171,172,173,110,110,110,110,110,110,
110,110,110,110,110,110,110,110,110,110,110,110,110,110,110,110,110,110,110,110,110,110,110,110,110,198,199,200,110,110,110,110,110,110,
110,110,110,110,110,110,110,110,110,110,110,110,110,110,110,110,110,110,110,110,110,110,110,110,110,225,226,227,110,110,110,110,110,110,
110,110,110,110,110,110,110,110,110,110,110,110,110,110,110,110,110,110,110,110,110,110,110,110,110,110,110,110,110,110,110,110,110,110,
29,29,29,29,29,29,29,29,29,29,29,29,29,29,29,29,110,110,29,29,29,29,29,29,29,29,29,29,29,29,29,29,29,29,
29,29,29,29,29,29,29,29,29,29,29,29,29,29,29,29,110,110,29,29,29,29,29,29,29,29,29,29,29,29,29,29,29,29,
29,29,29,29,29,29,29,29,29,29,29,29,29,29,29,29,110,110,29,29,29,29,29,29,29,29,29,29,29,29,29,29,29,29,
29,29,29,29,29,29,29,29,29,29,29,29,29,29,29,29,110,110,29,29,29,29,29,29,29,29,29,29,29,29,29,29,29,29,
29,29,29,29,29,29,29,29,29,29,29,29,29,29,29,29,110,110,29,29,29,29,29,29,29,29,29,29,29,29,29,29,29,29,
29,29,29,29,29,29,29,29,29,29,29,29,29,29,29,29,110,110,29,29,29,29,29,29,29,29,29,29,29,29,29,29,29,29,
29,29,29,29,29,29,29,29,29,29,29,29,29,29,29,29,110,110,29,29,29,29,29,29,29,29,29,29,29,29,29,29,29,29
  </data>
 </layer>
 <objectgroup id="2" name="Stage Objects">
  <object id="1" name="player" class="spawn" x="120" y="288">
   <properties>
    <property name="actor" value="actor.hero"/>
   </properties>
   <point/>
  </object>
  <object id="2" name="enemy.slime.1" class="spawn" x="420" y="160">
   <properties>
    <property name="actor" value="actor.slime"/>
   </properties>
   <point/>
  </object>
  <!-- Keep the authored spawn clear of the stone_garden collision polygon. -->
  <object id="3" name="enemy.slime.2" class="spawn" x="760" y="340">
   <properties>
    <property name="actor" value="actor.slime"/>
   </properties>
   <point/>
  </object>
  <object id="4" name="default" class="spawn_point" x="120" y="288"><point/></object>
  <object id="5" name="grove_return" class="spawn_point" x="980" y="288"><point/></object>
  <object id="15" name="village_entry" class="spawn_point" x="80" y="288"><point/></object>
  <object id="6" name="north_boundary" class="wall" x="0" y="0" width="1088" height="32"/>
  <object id="7" name="south_boundary" class="wall" x="0" y="544" width="1088" height="32"/>
  <object id="8" name="west_north" class="wall" x="0" y="0" width="32" height="224"/>
  <object id="16" name="west_south" class="wall" x="0" y="352" width="32" height="224"/>
  <object id="9" name="east_north" class="wall" x="1056" y="0" width="32" height="224"/>
  <object id="10" name="east_south" class="wall" x="1056" y="352" width="32" height="224"/>
  <object id="11" name="rotated_ruin" class="wall" x="470" y="170" width="170" height="42" rotation="15"/>
  <object id="12" name="stone_garden" class="wall" x="610" y="380">
   <polygon points="0,0 155,0 190,78 42,112"/>
  </object>
  <object id="13" name="healing_grove" class="trigger" x="260" y="218" width="108" height="136">
   <properties>
    <property name="cooldown" type="float" value="1"/>
    <property name="actions" value="[{&quot;type&quot;:&quot;heal&quot;,&quot;amount&quot;:15},{&quot;type&quot;:&quot;show_notice&quot;,&quot;text&quot;:&quot;+15 HP&quot;,&quot;tone&quot;:&quot;success&quot;,&quot;duration&quot;:2}]"/>
   </properties>
  </object>
  <object id="14" name="to_grove" class="portal" x="1056" y="224" width="32" height="128">
   <properties>
    <property name="target_stage" value="stage.world_grove"/>
    <property name="target_spawn" value="west_entry"/>
   </properties>
  </object>
  <object id="17" name="to_village" class="portal" x="0" y="224" width="32" height="128">
   <properties>
    <property name="target_stage" value="stage.village"/>
    <property name="target_spawn" value="field_return"/>
   </properties>
  </object>
  <object id="18" name="field_tutorial" class="trigger" x="32" y="224" width="176" height="128">
   <properties>
    <property name="once" type="bool" value="true"/>
    <property name="condition" value="{&quot;type&quot;:&quot;quest_state&quot;,&quot;quest&quot;:&quot;quest.grove_guardian&quot;,&quot;state&quot;:&quot;active&quot;}"/>
    <property name="actions" value="[{&quot;type&quot;:&quot;show_notice&quot;,&quot;text_key&quot;:&quot;notice.field.tutorial&quot;,&quot;duration&quot;:5}]"/>
   </properties>
  </object>
  <object id="19" name="world_item.potion" class="spawn" x="360" y="420">
   <properties>
    <property name="actor" value="actor.field_potion"/>
   </properties>
   <point/>
  </object>
  <object id="20" name="toxic_mire" class="trigger" x="800" y="224" width="96" height="96">
   <properties>
    <property name="cooldown" type="float" value="0.5"/>
    <property name="actions" value="[{&quot;type&quot;:&quot;damage&quot;,&quot;amount&quot;:12},{&quot;type&quot;:&quot;show_notice&quot;,&quot;text_key&quot;:&quot;notice.field.hazard&quot;,&quot;tone&quot;:&quot;warning&quot;,&quot;duration&quot;:2}]"/>
   </properties>
  </object>
 </objectgroup>
</map>
